X: 2
T: The Virginia
R: reel
M: 4/4
L: 1/8
K: Dmaj
DBBA ~B3A | BAdB AFEF | DF~F2 ~A3B | AFdB AFEF |
DBBA ~B3A | BAdB ABde | ~f3e defe | dBAF BE~E2 :|
|:defe d3A | BAFA BAFA | defe defg | afbf afeg |
fgfe dedB | AF~F2 ABde | ~f3e defe | dBAF BE~E2 :|


Tune 812	Setting 812

